assets/icons/24px/stroke/return-up-24px.svg

<svg width="24" height="24" viewBox="0 0 24 24" fill="none" xmlns="http://www.w3.org/2000/svg">
<g clip-path="url(#clip0_878_24636)">
<g clip-path="url(#clip1_878_24636)">
<path fill-rule="evenodd" clip-rule="evenodd" d="M6.06431 19.0613C6.00213 18.5988 6 17.9711 6 17L6 14.5C6 13.9477 5.55229 13.5 5 13.5C4.44772 13.5 4 13.9477 4 14.5L4 17.0658C3.99995 17.9523 3.99991 18.7161 4.08214 19.3278C4.17028 19.9833 4.36902 20.6117 4.87868 21.1213C5.38835 21.631 6.0167 21.8297 6.67221 21.9179C7.28388 22.0001 8.0477 22.0001 8.9342 22L9.06581 22C9.95231 22.0001 10.7161 22.0001 11.3278 21.9179C11.9833 21.8297 12.6117 21.631 13.1213 21.1213C13.631 20.6117 13.8297 19.9833 13.9179 19.3278C14.0001 18.7161 14.0001 17.9523 14 17.0658L14 4.63504L18.3598 8.26822C18.7841 8.62179 19.4147 8.56446 19.7682 8.14019C20.1218 7.71591 20.0645 7.08534 19.6402 6.73178L13.6402 1.73178C13.2693 1.42274 12.7307 1.42274 12.3598 1.73178L6.35982 6.73178C5.93554 7.08534 5.87822 7.71591 6.23178 8.14018C6.58535 8.56446 7.21591 8.62179 7.64019 8.26822L12 4.63504L12 17C12 17.9711 11.9979 18.5988 11.9357 19.0613C11.8774 19.495 11.7832 19.631 11.7071 19.7071C11.631 19.7832 11.495 19.8774 11.0613 19.9357C10.5988 19.9979 9.97108 20 9 20C8.02893 20 7.40121 19.9979 6.93871 19.9357C6.50497 19.8774 6.36902 19.7832 6.2929 19.7071C6.21677 19.631 6.12262 19.495 6.06431 19.0613Z" fill="white"/>
</g>
</g>
<defs>
<clipPath id="clip0_878_24636">
<rect width="24" height="24" fill="white"/>
</clipPath>
<clipPath id="clip1_878_24636">
<rect width="24" height="24" fill="white" transform="matrix(-4.37114e-08 1 1 4.37114e-08 0 0)"/>
</clipPath>
</defs>
</svg>

<svg width="24" height="24" fill="none" xmlns="http://www.w3.org/2000/svg"><g clip-path="url(#clip0_878_24636)"><g clip-path="url(#clip1_878_24636)"><path fill-rule="evenodd" clip-rule="evenodd" d="M6.064 19.061C6.002 18.6 6 17.971 6 17v-2.5a1 1 0 1 0-2 0v2.566c0 .886 0 1.65.082 2.262.088.655.287 1.284.797 1.793.51.51 1.138.709 1.793.797C7.284 22 8.048 22 8.934 22h.132c.886 0 1.65 0 2.262-.082.655-.088 1.284-.287 1.793-.797.51-.51.709-1.138.797-1.793.082-.612.082-1.376.082-2.262V4.635l4.36 3.633a1 1 0 1 0 1.28-1.536l-6-5a1 1 0 0 0-1.28 0l-6 5a1 1 0 1 0 1.28 1.536L12 4.635V17c0 .971-.002 1.599-.064 2.061-.059.434-.153.57-.229.646-.076.076-.212.17-.646.229C10.6 19.998 9.971 20 9 20c-.971 0-1.599-.002-2.061-.064-.434-.059-.57-.153-.646-.229-.076-.076-.17-.212-.229-.646z" fill="#fff"/></g></g><defs><clipPath id="clip0_878_24636"><path fill="#fff" d="M0 0H24V24H0z"/></clipPath><clipPath id="clip1_878_24636"><path fill="#fff" transform="matrix(0 1 1 0 0 0)" d="M0 0H24V24H0z"/></clipPath></defs></svg>
